Sources/FrostedUI/Resources/Icons.xcassets/bannerPhoto24.imageset/banner-photo-24.svg

<svg width="24" height="24" viewBox="0 0 24 24" fill="none" xmlns="http://www.w3.org/2000/svg" data-fui-icon="true">
  <path
    d="M18.3994 3.84961C21.0228 3.84961 23.1494 5.97626 23.1494 8.59961V15C23.1493 16.6387 22.3191 18.0827 21.0566 18.9365C20.4766 19.4894 19.6911 19.8369 18.8066 19.8369H12.5996C12.4871 19.8368 12.3829 19.8039 12.293 19.75H5.59961C2.97655 19.7498 0.849821 17.6231 0.849609 15V8.59961C0.849609 5.97638 2.97642 3.8498 5.59961 3.84961H18.3994ZM5.59961 5.34961C3.80485 5.3498 2.34961 6.8048 2.34961 8.59961V12.2344L4.39648 9.90332C5.01238 9.20174 5.90141 8.79996 6.83496 8.7998C6.89079 8.7998 6.94648 8.80085 7.00195 8.80371C7.11324 8.80943 7.22376 8.82094 7.33301 8.83789C7.4421 8.85484 7.54998 8.87746 7.65625 8.90527C7.70972 8.91925 7.76282 8.93451 7.81543 8.95117C8.33841 9.11697 8.81611 9.41469 9.19922 9.82227L12.4629 13.2959L13.707 11.7539C14.0895 11.2794 14.603 10.9392 15.1738 10.7666C15.3986 10.698 15.6326 10.6562 15.8711 10.6426L16.04 10.6377H16.041C16.0936 10.6377 16.146 10.6389 16.1982 10.6416C16.3615 10.6503 16.5229 10.6722 16.6807 10.707C17.281 10.8381 17.8323 11.1515 18.2539 11.6123L21.6338 15.3076C21.6433 15.2063 21.6494 15.1038 21.6494 15V8.59961C21.6494 6.80469 20.1943 5.34961 18.3994 5.34961H5.59961Z"
    fill="currentColor"
  />
</svg>

<svg xmlns="http://www.w3.org/2000/svg" width="24" height="24" fill="none" data-fui-icon="true" viewBox="0 0 24 24"><path fill="currentColor" d="M18.4 3.85a4.75 4.75 0 0 1 4.75 4.75V15c0 1.639-.83 3.083-2.093 3.936a3.24 3.24 0 0 1-2.25.9H12.6a.6.6 0 0 1-.307-.086H5.6A4.75 4.75 0 0 1 .85 15V8.6A4.75 4.75 0 0 1 5.6 3.85zM5.6 5.35A3.25 3.25 0 0 0 2.35 8.6v3.634l2.046-2.33A3.246 3.246 0 0 1 9.2 9.821l3.264 3.474 1.244-1.542a3 3 0 0 1 2.164-1.111l.169-.005h.001a3 3 0 0 1 .64.069 3 3 0 0 1 1.573.905l3.38 3.696a3 3 0 0 0 .015-.308V8.6a3.25 3.25 0 0 0-3.25-3.25z"/></svg>
